X: 11092
T: the LAST ROSE OF SUMMER
C: words: Thomas Moore 1805
C: tune: trad. Ireland
N: The Irish tune is called "Aislean an Oigfear" or "The Young Man's Dream".
%R: waltz
N: This is version 2, for ABC software that doesn't understand voice overlays.
N: The top staff's 2 voices are here transcribed as two staffs.
B: Elias Howe "The Musician's Companion" Part 1 1842 p.109 #2
S: http://imslp.org/wiki/The_Musician's_Companion_(Howe,_Elias)
Z: 2015 John Chambers <jc:trillian.mit.edu>
M: C
L: 1/16
K: C
% - - - - - - - - - - - - - - - - - - - - - - - - -
V: 1 staves=3
g3f |\
e4 c'4 b3a | (ge3e2)z2 c3d | e4 ({g}f2e2) {e}d3c | c8 c3d |\
(e2g2 d'2c'2 b2c'a) | (ge3 e2)z2 c3d | (e2g2) ({g}f2e2) {e}d3c | c8g3e |
c'4 c'3b {b}a3g | (g4 e4) g3e | c'4 c'2b2a2^g2 | {^g}a8 =g3f |\
(ec3) (c'3e' d'c'b)a | (ge3 e2)z2 c3d | e2{g}f2 e4 {fe}HTd3c | Hc8 |]
% - - - - - - - - - - - - - - - - - - - - - - - - -
V: 2
e3d |\
c4 e4 g3z | (ec3 c2)z2 E3F | G4 A2G2 F3E | E8 F3G |\
G4 z4 F4 | (EC3 C2)z2 E3F | (G2_B2) (A2G2) F3E | E8 e3c |
e4 e3g f3e | (e4 c4) e3c | e4 e2d2c2B2 | c8 e3d |
c4 (e3c' bzg)f | (ec3 c2)z2 G3B | c2A2 G4 HF3E | HE8 |]
% - - - - - - - - - - - - - - - - - - - - - - - - -
V: 3 clef=bass middle=d
z4 |\
c'8 c'4 | c'8 z4 | c'8 g4 | c8 z4 |
c'4 z4 c'4 | c8 z4 | c'8 g4 | c8 z4 |
c8 c'4 | c8 z4 | c4 c2d2e2E2 | A8 z4 |\
c6 c2 c'2c'2 | c8 e3d | c2f2 g4 HG4 | Hc8 |]
% - - - - - - - - - - - - - - - - - - - - - - - - -
